X: 1671
T: Sarardım Ben Sarardım
C: (Anonim)
O: Turkey
F: http://compmusic.upf.edu/node/140
N: ussak--turku--nimsofyan--sarardim_ben--
N: makam= ussak
N: form= turku
N: usul= nimsofyan = 2/4
M: 2/4
L: 1/16
K: C _2/4B   
Q: 1/4=84
%%MIDI tuningsystem comma53
z4 defe  | fefg e3d  | eddc d2ec  | ed2_1/4B c2d_2/4B  | 
w:   |   |   |   | 
BAA2 d2dc  | ed2_1/4B c2_2/4BA  | B2A2 Adc_1/4B  | \
w:   |   |   | 
c2BA A4  | 
w:   | 
z4 defe  | fefg e3d  | eddc d2ec  | ed2_1/4B c2d_2/4B  | 
w:   |   |   |   | 
BAA2 d2dc  | ed2_1/4B c2_2/4BA  | B2A2 Adc_1/4B  | \
w:   |   |   | 
c2BA A3d  | 
w:   | 
cde2 z2cd  | e2e2 ee3  | fefg e2d2  | dgfe fefg  | 
w:  *  *  *  Sa rar  |  dım  ben  sa rar  |  dım    |  Se *  nin   | 
e2ed ed2c  | d2ec ed2_1/4B  | c2dB BAA2  | \
w:  *  i *  çin   |  sa rar  |  dım    | 
Addc ed2_1/4B  | 
w:  Se *  nin   | 
c2BA B2A2  | Adc_1/4B c2_2/4BA  | A3d cde2  | \
w:  i çin   |  sa *  rar  |  dım   SAZ  | 
z2cd e2e2  | 
w:  Baş  yas tık ta   | 
e2e2 fefg  | e2d2 dgfe  | fefg e2ed  | ed2c d2ec  | 
w:  göz  yol da    |  *  *  Her  *  ge  |  *  *  *  *  le ne   |  *  *  *  so rar  | 
ed2_1/4B c2d_2/4B  | BAA2 Addc  | ed2_1/4B c2_2/4BA  | \
w:  *  *  *  dım    |  *  *  *  Her  *  ge  |  *  *  *  le ne   | 
B2A2 Adc_1/4B  | 
w:  *  *  so *  rar  | 
c2BA A4  | z4 defe  | fefg e2ed  | ed2c d2ec  | 
w:  *  *  *  dım    |  Al  *  dağ  |  *  *  *  *  lar  ye  |  *  *  *  şil  bağ  | 
ed2_1/4B c2dB  | _1/4BA3 Addc  | ed2_1/4B c2_2/4BA  | \
w:  *  *  *  lar    |  *  *  Gur *  bet  |  *  *  *  te  yâ  | 
B2A2 Addc  | 
w:  *  *  rim  *  ağ  | 
c2BA A4  | z4 defe  | fefg e2ed  | ed2c ceec  | 
w:  *  *  *  lar    |  Aç *  tı   |  m'o *  la  *  şu  Sı  |  vas_ ın  *  gü lü   | 
edd_1/4B c2d_2/4B  | BAA2 d3c  | ed2_1/4B c2_2/4BA  | \
w:  yap *  ra *  ğı    |  *  *  *  Çek ti   |  bi zi  *  şu  el  | 
BA3 Adc_1/4B  | 
w:  le rin  su *  yu   | 
c2BA A4  | z4 defe  | fefg e2ed  | ed2c ceec  | 
w:  top ra *  ğı    |  Aç *  tı   |  m'o *  la  *  şu  Sı  |  vas_ ın  *  gü lü   | 
edd_1/4B c2d_2/4B  | BAA2 d3c  | ed2_1/4B c2_2/4BA  | \
w:  yap *  ra *  ğı    |  *  *  *  Çek ti   |  bi zi  *  şu  el  | 
BA3 Adc_1/4B  | 
w:  le rin  su *  yu   | 
c2BA A4  | z4 defe  | fefg e3d  | eddc d2ec  | 
w:  top ra *  ğı    |   |   |   | 
ed2_1/4B c2d_2/4B  | BAA2 d2dc  | ed2_1/4B c2_2/4BA  | \
w:   |   |   | 
B2A2 Adc_1/4B  | 
w:   | 
c2BA A4  | z4 defe  | fefg e3d  | eddc d2ec  | 
w:   |   |   |   | 
ed2_1/4B c2d_2/4B  | BAA2 d2dc  | ed2_1/4B c2_2/4BA  | \
w:   |   |   | 
B2A2 Adc_1/4B  | 
w:   | 
c2BA A3d  | cde2 z2cd  | e2e2 ee3  | fefg e2d2  | 
w:   |  *  *  *  Sa rar  |  dım  ben  sa rar  |  dım    | 
dgfe fefg  | e2ed ed2c  | d2ec ed2_1/4B  | \
w:  Se *  nin   |  *  i *  çin   |  sa rar  | 
c2dB BAA2  | 
w:  dım    | 
Addc ed2_1/4B  | c2BA B2A2  | Adc_1/4B c2_2/4BA  | \
w:  Se *  nin   |  i çin   |  sa *  rar  | 
A3d cde2  | 
w:  dım   SAZ  | 
z2cd e2e2  | e2e2 fefg  | e2d2 dgfe  | fefg e2ed  | 
w:  Baş  yas tık ta   |  göz  yol da    |  *  *  Her  *  ge  |  *  *  *  *  le ne   | 
ed2c d2ec  | ed2_1/4B c2d_2/4B  | BAA2 Addc  | \
w:  *  *  *  so rar  |  *  *  *  dım    |  *  *  *  Her  *  ge  | 
ed2_1/4B c2_2/4BA  | 
w:  *  *  *  le ne   | 
B2A2 Adc_1/4B  | c2BA A4  | z4 defe  | fefg e2ed  | 
w:  *  *  so *  rar  |  *  *  *  dım    |  Al  *  dağ  |  *  *  *  *  lar  ye  | 
ed2c d2ec  | ed2_1/4B c2dB  | _1/4BA3 Addc  | \
w:  *  *  *  şil  bağ  |  *  *  *  lar    |  *  *  Gur *  bet  | 
ed2_1/4B c2_2/4BA  | 
w:  *  *  *  te  yâ  | 
B2A2 Addc  | c2BA A4  | z4 defe  | fefg e2ed  | 
w:  *  *  rim  *  ağ  |  *  *  *  lar    |  Aç *  tı   |  m'o *  la  *  şu  Sı  | 
ed2c ceec  | edd_1/4B c2d_2/4B  | BAA2 d3c  | \
w:  vas_ ın  *  gü lü   |  yap *  ra *  ğı    |  *  *  *  Çek ti   | 
ed2_1/4B c2_2/4BA  | 
w:  bi zi  *  şu  el  | 
BA3 Adc_1/4B  | c2BA A4  | z4 defe  | fefg e2ed  | 
w:  le rin  su *  yu   |  top ra *  ğı    |  Aç *  tı   |  m'o *  la  *  şu  Sı  | 
ed2c ceec  | edd_1/4B c2d_2/4B  | BAA2 d3c  | \
w:  vas_ ın  *  gü lü   |  yap *  ra *  ğı    |  *  *  *  Çek ti   | 
ed2_1/4B c2_2/4BA  | 
w:  bi zi  *  şu  el  | 
BA3 Adc_1/4B  | c2BA A4  | |


